svg/male.svg

<svg xmlns="http://www.w3.org/2000/svg" viewBox="0 0 32 32" enable-background="new 0 0 32 32"><path d="M 17 4 L 17 6 L 24.5625 6 L 18.59375 11.96875 C 17.05538 10.742104 15.11371 10 13 10 C 8.0412819 10 4 14.041282 4 19 C 4 23.958718 8.0412819 28 13 28 C 17.958718 28 22 23.958718 22 19 C 22 16.88629 21.257896 14.94462 20.03125 13.40625 L 26 7.4375 L 26 15 L 28 15 L 28 5 L 28 4 L 27 4 L 17 4 z M 13 12 C 16.877838 12 20 15.122162 20 19 C 20 22.877838 16.877838 26 13 26 C 9.1221621 26 6 22.877838 6 19 C 6 15.122162 9.1221621 12 13 12 z" color="#000" overflow="visible" enable-background="accumulate"/></svg>

<svg xmlns="http://www.w3.org/2000/svg" viewBox="0 0 32 32"><path d="M17 4v2h7.563l-5.97 5.97C17.056 10.74 15.114 10 13 10c-4.96 0-9 4.04-9 9s4.04 9 9 9 9-4.04 9-9c0-2.114-.742-4.055-1.97-5.594L26 7.436v7.564h2V4H17zm-4 8c3.878 0 7 3.122 7 7s-3.122 7-7 7-7-3.122-7-7 3.122-7 7-7z"/></svg>
